X:1
T:Trio Senata in F-major, TWV 42:F9
T:Georg Philipp Telemann (1681—1767)
T:Triosonata in  F-major, TWV 42:F9
T:Transcribed for 2 Recorders and Basso Continuo from IMSLP#316628 PDF File
T:Public Domain - Non-PD US
T:Public Domain - Non-PD US
T:Public Domain - Non-PD US
T:Public Domain - Non-PD US
T:Public Domain - Non-PD US
T:Public Domain - Non-PD US
T:Public Domain - Non-PD US
T:Public Domain - Non-PD US
C:Georg Philipp Telemann
Z:Public Domain - Non-PD US
%%score [ 1 2 3 ] { ( 4 6 ) | 5 }
L:1/8
Q:1/4=90
M:4/4
K:F
V:1 treble nm="Alto Rec." snm="A."
V:2 treble nm="Tenor Rec." snm="T."
V:3 bass nm="Fagotto" snm="Bsn."
V:4 treble nm="Harpsichord" snm="Hch."
V:6 treble 
V:5 bass 
V:1
"^Allegro" z f/g/ a/b/a/b/ c'b/a/ g/a/b/c'/ | af/g/ a/b/c'/d'/ ge/f/ g/a/b/c'/ | %2
 fd/e/ f/g/a/b/ e/c/d/e/ (3f/g/a/ (3g/a/b/ | !^!a/g/f/g/ (3a/b/c'/ (3b/c'/d'/ c'/b/a/b/ g>f | %4
 f/a/=b/c'/ d'/a/b/c'/ b/d/e/f/ g/d/e/f/ | e2 z4 z2 | z8 | z8 | z8 | z/ g/a/b/ c'/g/a/b/ a2 z2 | %10
 z B/c/ d/_e/d/e/ fe/d/ c/d/e/f/ | df b4 a2 | bd g2 z c f2 | z B _e2 z c f2 | %14
 z/ f/g/a/ (3b/c'/d'/ (3c'/d'/_e'/ d'/c'/b/c'/ a>b | b2 z2 z/ g/a/b/ c'/g/a/b/ | %16
 a2 z2 z/ f/g/a/ b/f/g/a/ | g2 z2 z/ e/f/g/ a/e/f/g/ | f2 z2 z/ a/a/a/ (3f/g/a/ (3e/f/g/ | %19
 f^fgf z/ d'/d'/d'/ (3b/c'/d'/ (3a/b/c'/ | b/g/a/b/ c'b/c'/ d'c'/b/ a/b/c'/d'/ | %21
 bg/a/ b/c'/d'/_e'/ af/g/ a/b/c'/d'/ | g_e/f/ g/a/b/c'/ ^f/d/=e/f/ (3g/a/b/ (3a/b/c'/ | %23
 b/a/g/a/ (3b/c'/d'/ (3c'/d'/_e'/ d'/c'/b/c'/ a>g | g2 z2 z/ c'/c'/c'/ (3a/b/c'/ (3f/g/a/ | %25
 aaba b=bc'b | c'^c'd'c' d'/a/a/a/ (3f/g/a/ (3e/f/g/ | f^cdc d2 z d' | e'g' z c' d'f' z e' | %29
 ^c'd'/e'/ c'>d' d'f/g/ a/b/a/=b/ | !arpeggio!c'g c'4 =b2 | c'2 z4 z2 | %32
 z f/g/ a/b/a/b/ c'b/a/ g/a/b/c'/ | !^!af/g/ a/b/c'/d'/ ge/f/ g/a/b/c'/ | %34
 fd/e/ f/g/a/b/ e/c/d/e/ (3f/g/a/ (3g/a/b/ | a/g/f/g/ (3a/b/c'/(3b/c'/d'/ c'/b/a/b/ g>f | %36
 !wedge!f2 z2 z/ c'/c'/c'/ (3a/b/c'/ (3g/a/b/ | aaba b/g/g/g/ (3e/f/g/ (3d/e/f/ | eefe fg c2 | %39
 z ^fgf gd G2 | z/ e/e/e/ (3f/g/a/ (3g/a/b/ a/e/e/e/ (3f/g/a/ (3g/a/b/ | %41
 a/g/f/g/ z2 c'/b/a/b/ Tg>f | f4 z4 |][M:4/4]"^Affettuoso"[Q:1/4=50] z8 | z8 | z8 | %46
 g2 (a3/2=b/4c'/4) (b/a/)g z b | c'>=b (b/a/)(a/g/) (g/f/)(f/e/) (e/d/)d/c/ | %48
 c>e d(e/f/) e(f/g/) d(e/f/) | (e/d/)c z2 z (c'/=b/) c'2- | c'b/a/ (b/4c'/4d'/)(c'/b/) a3 b | %51
 ^c/e/f/g/ c>d d2 z2 | d2 (e3/2f/4g/4) (f/e/)d z ^f | (g3/2a/4b/4) g>f (e/d/)c z2 | %54
 c'2 (d'3/2e'/4f'/4) (e'/d'/)c' z e' | f'>e' (e'/d'/)(d'/c'/) (c'/b/)(b/a/) (a/g/)(g/f/) | %56
 f>a ga/b/ a>c' ga/b/ | ag/f/ Te>f f4- | f(g/f/) ce f(_e/d/) (e/4f/4g/)(f/e/) | %59
 dg/^f/ g2- g=f/e/ (f/4g/4a/)(g/f/) | ef z b/a/ Tg>f (g/4a/4b/)(a/g/) | %61
 (f/e/)(f/g/) (a/b/)(Tb3/4a/8b/8) c'4- | c'8- | c'b/a/ Tg>f f2 z (a/^g/) | ^g2 | ae Tf3 g | %66
 e4 z4 |][M:3/4]"^Presto"[Q:1/4=140] z6 | z6 | z6 | f'e'/d'/ c'c'c'c' | f'e'/d'/ c'c'c'c' | %72
 c'b/a/ gabc' | a2 z2 z2 | d'c'/b/ aa a=b/c'/ | =b2 z2 z2 | c'=b/a/ gggg | c'=b/a/ gggg | %78
 gf/e/ defg | ed/e/ fedc | de/f/ gfed | ef/g/ a2 z2 | de/f/ g2 z2 | cd/e/ f2 z2 | f6 | f6 | %86
 f2 e2 z2 | e4 z2 | dd/e/ dddd | dd/e/ dddd | d2 gf ef/g/ | agfe de/f/ | ed d3 c |1 c6 :|2 c6 |: %95
 c'=b/a/ gggg | c'=b/a/ gggg | gf/e/ defg | edef gf/e/ | f2 a2 e2 | f2 a2 e2 | fd' T^c'4 | %102
 ag/f/ efga | f2 T^f4 | d'c'/b/ abc'd' | bd'/c'/ baba | bd'/c'/ baba | bg T^f3 g | gf/e/ dd de/f/ | %109
 e2 z4 | fe/d/ cc cd/_e/ | df/_e/ dcdc | df/_e/ dcdc | df g2 z2 | z g a2 z2 | z a b2 z2 | %116
 z b c'3 b | a2 c'2 g2 | a2 c'2 g2 | ag/f/ gggg | ag/f/ gggg | ab Tg3 f | fg/a/ b2 z2 | b6- | b6- | %125
 b2 a2 z2 | a4 z2 | gg/a/ gggg | gg/a/ gggg | g2 c'b ab/c'/ | d'c'ba ga/b/ | ag/f/ gggg | %132
 ag/f/ gggg | ab Tg3 f |1 f6 :|2 f6 |] %136
V:2
 z8 | z8 | z8 | z8 | z8 | z c/d/ e/f/e/f/ gf/e/ d/e/f/g/ | ec/d/ e/f/g/a/ d=B/c/ d/e/f/g/ | %7
 cA/=B/ c/d/e/f/ B/G/A/B/ (3c/d/e/ (3d/e/f/ | e/d/c/d/ (3e/f/g/ (3f/g/a/ g/f/e/f/ d>c | %9
 c2 z2 z/ c/d/e/ f/c/d/_e/ | dF B4 A2 | z B/c/ d/_e/d/e/ fe/d/ c/d/e/f/ | %12
 dB/c/ d/_e/f/g/ cA/B/ c/d/e/f/ | BG/G/ G/c/d/_e/ A/F/G/A/ (3B/c/d/ (3c/d/=e/ | %14
 d/c/B/c/ (3d/_e/f/ (3e/f/g/ f/e/d/e/ c>d | B/d/e/f/ g/d/e/f/ e2 z2 | z/ c/d/e/ f/c/d/_e/ d2 z2 | %17
 z/ =B/c/d/ e/B/^c/d/ c2 z2 | z/ a/a/a/ (3f/g/a/ (3e/f/g/ f^cdc | %19
 z/ d/d/d/ (3B/c/d/ (3A/B/c/ B^FGF | Gd g4 ^f2 | gB _e2 z A d2 | z G c2 z A d2 | %23
 z/ D/E/^F/ (3G/A/B/ (3A/B/c/ B/A/G/A/ F>G | G/g/g/g/ (3e/f/g/ (3d/e/f/ eefe | %25
 z/ f/f/f/ (3d/!arpeggio!e/f/ (3c/d/e/ d/g/g/g/ (3=e/f/g/ (3d/e/f/ | %26
 e/a/a/a/ (3f/g/a/ (3e/f/g/ f^cdc | de A2 z fgb | z efa z deg | g/g/f/e<ed/ d2 z2 | %30
 z c/d/ e/f/e/f/ gf/e/ d/e/f/g/ | ec/d/ e/f/g/a/ d=B/c/ d/e/f/g/ | cc f4 e2- | e2 d4 c2- | %34
 c2 B2- BG c2 | z/ c/d/e/ (3f/g/a/ (3g/a/b/ a/g/f/g/ e>f | f/c/c/c/ (3A/B/c/ (3G/A/B/ Aefe | %37
 z/ f/f/f/ (3d/_e/f/ (3c/d/e/ d=BcB | z/ c/c/c/ (3A/B/c/ (3G/A/B/ Aefe | fa d2 z =BcB | %40
 c/c/c/c/ c/c/c/c/ c/c/c/c/ c/c/c/c/ | c/c/d/e/ (3f/g/a/ (3g/a/b/ a/g/f/g/ Te>f | f4 z4 |] %43
[M:4/4] c2 (d3/2e/4f/4) (e/d/)c z e | (f>e) (e/d/)d/c/ (c/B/)B/A/ A/G/(G/F/) | %45
 F>A G(A/B/) Ad/c/ (d/a/)(f/d/) | =Bc z f/e/ Td>c (d/4e/4f/)(e/d/) | %47
 (c/=B/)c/d/ e/f/Tf3/4(e/8f/8) g4- | g8- | ge f(a/g/) gc z _e/d/ | %50
 d(g/^f/) g2- g(=f/e/) (f/4g/4a/)(g/f/) | (e/^c/)(d/e/) e>d d2 (e3/2f/4g/4) | %52
 (f/e/)d z ^c d2 (A3/2B/4=c/4) | B2 z =B c2 (d3/2e/4f/4) | (e/d/)c z B/A/ G>F G/4A/4B/A/G/ | %55
 (F/E/)(F/G/) A/B/TB3/4A/8B/8 c4 | z8 | c4 cA Bd/c/ | cB/A/ A3/2G/4F/4 F2 c2- | %59
 cB/A/ (B/4c/4d/)(c/B/) A2 z =B | c2 (d3/2e/4f/4) (e/d/)c z e | %61
 (f>e) (e/d/)(d/c/) (c/B/)(B/A/) (A/G/)(G/F/) | F>A (G3/2A/4B/4) A>c (G3/2A/4B/4) | %63
 AG/F/ TE>F F(f/d/) d2- | d2 | c4 =B2 | c4 z4 |][M:3/4] fe/d/ cccc | fe/d/ cccc | cB/A/ GABc | %70
 A2 c2 G2 | A2 c2 G2 | Af Te3 d/e/ | fe/d/ cc cd/_e/ | d2 z2 z2 | gf/e/ dd de/f/ | e2 g2 d2 | %77
 e2 g2 d2 | ec T=B3 A/B/ | c=B/c/ dcBA | =Bc/d/ edcB | cd/e/ fedc | =Bc/d/ edcB | A=B/c/ d4 | d6 | %85
 d6 | d2 c2 z2 | cB A2 z2 | c2 A=BcB | c2 A=BcA | =BA GA/B/ cB | A=B/c/ dc Bc/d/ | c=B B3 c |1 %93
 c6 :|2 c6 |: z6 | z6 | z6 | z6 | dc/B/ AA^AA | dc/B/ AA^AA | AG/F/ EFGA | Fd T^c4 | dc/B/ ABcd | %104
 BA/G/ ^FGAF | GB/A/ G^FGF | GB/A/ G^FGF | G_e A3 G | G2 z4 | cB/A/ GG GA/B/ | A2 z4 | Bd/c/ BABA | %112
 Bd/c/ BABA | B2 z d de/f/ | e2 z e ef/g/ | f2 z f fg/a/ | g2 z g gf/e/ | f2 e2 z2 | f2 e2 z2 | %119
 fe/d/ cccc | fe/d/ cccc | fg e3 f | f4 z2 | g3 ece | g3 ece | g2 f2 z2 | fe d2 z2 | fedefe | %128
 f2 defd | ed cd/e/ fe | de/f/ gf ef/g/ | fe/d/ cccc | fe/d/ cccc | fg Te3 f |1 f6 :|2 f6 |] %136
V:3
 F,,F,D,B, A,B,CC, | F,D z F, E,C z E, | D,B, z D, C,CA,E, | F,F,,F,G, A,B,CC, | %4
 F,2 z D, G,2 z G,, | C,CA,F, E,CG,,=B, | C,A, z C, =B,,G, z B,, | A,,F, z A,, G,,G,E,=B,, | %8
 C,C,,C,D, E,F,G,G,, | C,2 E,2 F,2 A,,2 | B,,2 z G, F,2 F,,2 | B,,B,G,_E, D,E,F,F,, | %12
 B,,G, z B,, A,,F, z A,, | G,,_E, z G,, F,,F,D,A,, | B,,2 z A,, B,,_E,F,F,, | B,,2 =B,,2 C,2 E,2 | %16
 F,2 A,2 B,2 D,2 | E,2 G,2 A,2 ^C,2 | D,2 D^C DA,D,A, | DD,A,,D, G,D, G,,D, | %20
 G,,G,_E,C, B,,C,D,D,, | G,_E z G, F,D z F, | _E,C z E, D,DB,^F, | G,2 z ^F, G,B,DD, | %24
 G,G,,C,=B,, C,C,F,,C, | F,F,B,,F, B,G,C,G, | CA,D,A, D, z2 z | %27
 z/ A,/A,/A,/ (3F,/G,/A,/ (3^E,/F,/G,/ F,/D/D/D/ (3B,/C/D/ (3G,/A,/B,/ | %28
 C,/C/C/C/ (3A,/B,/C/ (3F,/G,/A,/ B,,/B,/B,/B,/ (3G,/A,/B,/ (3E,/F,/G,/ | A,,D, A,A,, D,,2 D,2 | %30
 E,2 C,D, E,F,G,G,, | C,A, z C, B,,G, z B,, | A,,F, z D, A,B,CC, | F,F,, z B,, E,E,, z A, | %34
 D,D,, z G, C,CA,E, | F,2 z E, F,B,CC, | F,,2 F,E, F,C, F,,C, | F,F, B,,F, B,G, C,G, | %38
 CC,F,,C, F,/C/C/C/ (3A,/B,/C/ (3G,/A,/B,/ | %39
 A,/D/D/D/ (3B,/C/D/ (3A,/B,/C/ B,/G,/G,/G,/ (3E,/F,/G,/ (3D,/E,/F,/ | %40
 E,/C,/C,/C,/ (3D,/E,/F,/ (3E,/F,/G,/ F,/C,/C,/C,/ (3D,/E,/F,/ (3E,/F,/G,/ | F,2 z E, F,B,CC, | %42
 F,4 z4 |][M:4/4] F,A,B,G, CC,CA, | D,DCB, A,G,F,E, | D,C,B,,C, F,,2 z F, | F,E,F,D, G,G,, z G, | %47
 A,,A,G,F, E,D,C,=B,, | C,E,,F,,G,, C,E,,F,,G,, | C,CA,F, C2 z C, | G,2 z G,, D,2 z G, | %51
 A,D,A,A,, D,B,,G,,A,, | D,F,G,A, D,D,^F,D, | G,G,, z G, C, C2 =B, | CA,B,G, CC, z C | %55
 D,DCB, A,G,F,E, | D,A,,B,,C, F,A,,B,,C, | F,B,CC, F,2 D,B,, | A,,B,,C,C,, F,,G,,A,,F,, | %59
 B,,2 z G,, D,2 z G, | CA,B,G, CC, z C | D,DCB, A,G,F,E, | D,A,,B,,C, F,A,,B,,C, | %63
 F,,B,,C,C,, F,,2 z F, | E,2 | A,,2 D,4 | C,4 z4 |][M:3/4] F,2 z2 E,2 | D,2 z2 E,2 | F,2 B,2 C2 | %70
 F,2 z2 E,2 | F,2 z2 E,2 | F,B, C2 C,2 | F,2 A,2 F,2 | B,2 C2 D2 | G,2 =B,2 G,2 | C2 z2 =B,2 | %77
 C2 z2 =B,2 | CF, G,2 G,,2 | C,2 z2 z2 | G,2 z2 z2 | CB,A,G, F,E,/F,/ | G,F, E,2 z2 | %83
 F,E, D,2 z C, | =B,,F,/E,/ F,D,B,,D, | G,,F,/E,/ F,D,=B,,D, | G,,A,,/=B,,/ C,2 z2 | %87
 C,D,/E,/ F,2 z2 | ^F,2 z2 z2 | ^F,2 z2 z2 | G,F, E,F,/G,/ A,G, | F,E, D,E,/F,/ G,2 | %92
 C,2 G,2 G,,2 |1 C,2 CB,A,G, :|2 C,6 |: C,2 z2 B,,2 | A,,2 z2 B,,2 | C,2 F,2 G,2 | C,2 ^C,2 A,,2 | %99
 D,2 z2 ^C,2 | D,2 z2 ^C,2 | D,2 A,2 A,,2 | D,2 A,2 A,,2 | D,2 D2 D,2 | G,2 D2 D,2 | G,2 z D,G,D, | %106
 G,2 z D,G,D, | G,CDCDD, | G,2 =B,2 G,2 | C,2 E,2 C,2 | F,2 A,2 F,2 | B,,2 z F,B,F, | %112
 B,2 z F, B,F, | B,2 z =B, B,C/D/ | C2 z ^C CD/E/ | D2 z D DE/F/ | E2 z E, E,D,/C,/ | %117
 F,E,/D,/ C,C,C,C, | F,E,/D,/ C,C,C,C, | F,2 E,2 z2 | F,2 E,2 z2 | F,B,CB,CC, | D,2 z D,D,E,/F,/ | %123
 E,B,/A,/ B,G,E,G, | C,B,/A,/ B,G,E,G, | C,D,/E,/ F,2 z2 | F,G,/A,/ B,2 z2 | =B,2 z4 | =B,2 z4 | %129
 CB, A,B,/C/ DC | B,A, G,A,/B,/ CC, | F,2 E,2 z2 | F,2 E,2 z2 | F,2 C,2 C,,2 |1 %134
 F,,F,/G,/ A,F,E,D, :|2 F,,6 |] %136
V:4
 [FAc][FA][FAd][FBd] [Fc][DFB][CEG][EGB] | [FA]2 z [A,A] G/F/E z [CG] | [DF]2 z [FB] cG Ac/B/ | %3
w: |||
 [FA][Ac]AB c[DFB] [CEG]2 | [CFA]2 z [DFA] [DG=B]2 z [DGB] | [EGc][EG][CEA][CFA] GE G2 | %6
w: ||* * — * * * *|
 [CE]2 z [EA] G/A/=B z [DG] | [CA]2 z [CF] GD G2 | [EG]2 c4 [G=B]2 | [EGc]2 [CGc]2 [CFA]2 [CFc]2 | %10
w: ||||
 [DFB]2 z [B,DB] B2 A2 | [DFB]2 B4 A2 | [DB]2 z [Dd] c/B/A z [Fc] | %13
w: |||
 [GB]2 z [_EB] [FA][CA][FB][Fc] | [FBd]2 z [Fc] [FBd][_EGc] [CFA]2 | [DFB]2 [Gd]2 [EGc]2 cB | %16
w: |||
 [CFA]2 [Fc]2 [DFB]2 BA | [CEG]2 [DEG]2 [^CEG]2 AG | [DF]2 [FA]2 A4- | %19
w: |||
 [FA][^FA][GB][FA] [GB][FA][GB][FA] | [DGB]2 B[ce] d[ce] [^FAd]2 | B/A/G z [B,B] A/G/F z [DA] | %22
w: |||
 [_EG]2 z [Gc] [^FAd]2 [Gd][Ac] | [DGB]2 z [DAc] [DGB][_EGc] [D^FA]2 | %24
w: ||
[K:treble] [DGB]2 G2- [CEG][CEG][CFA][CEG] | [CFA][CFA][DFB][CFA] [DFB][DG=B][EGc][DGB] | %26
w: ||
 [EGc][EA^c][FAd][EAc] [FAd] z2 z | [FAd][EA^c][DAd][EGc] [DAd][FA][GBd][DBd] | %28
w: ||
 [EGc][EG][FAc][CAc] [DFB][DF][EGB][EGB] | A/G/[DF] [^CE]2 D2 [DF]2 | [CGc]2 c4 [DB]2 | %31
w: |||
 [Ec]2 z [Ee] d/c/B z [EGd] | [Ac]2 z [Fd] c[Bd]cB | [FA]2 z [Fd] [Gd]2 z [Gc] | %34
w: |||
 [Fc]2 z [FB] B/A/G [CFc][CGB] | [CFA]2 z [CGB] [CFA][DFB] [CEG]2 | %36
w: ||
 [CFA]2 [CFA][CG] [CFA][CEG][CFA][CEG] | [CFA][CFA][DFB][CFA] [DFB][DG=B][EGc][DGB] | c4 c4- | %39
w: |||
 [Fc][^FA] d2- d=BcB | c2 c4 c2 | [FAc]2 z [CGB] [CFA][DFB] [CEG]2 | [A,CF]4 z4 |] %43
w: ||||
[M:4/4][K:treble] F3 B [EG]2 [EG][Ec] | A3 B c4 | cB/A/ G2 [CFA]2 z [FA] | %46
w: |||
 [G=B][Gc][FA][FAd] [DGB]2 z [GB] | c2 =BA G4 | G4 G4- | [CEG]2 [CF]2 [CEG]2 z [_EG-c-] | %50
w: ||||
 cB z [DGB] [DA]2 z [DGB] | A3 G [DF][DF][B,DG][A,^CE] | FD E2 FA A2 | %53
w: |||
 [DGB]2 z [DG=B] [EGc]2 [Fd]2 | c2 _B2 [EGB]2 z A/B/ | A3 B c4 | c4 c3 B | %57
w: ||||
 AG/F/ [CE]2 [A,CF]2 [B,F][DFB] | [CFc][DFB] [FA][EG] F4 | FG z [DGB] [DA]2 z [DG=B] | %60
w: |||
 c2 d[G_B] [EGB]2 z A/B/ | A3 B c4- | c4 c3 B | [FA]G/F/ [G,CE]2 [A,CF]2 z [DAd] | [E^Gd]2 | %65
w: |||||
 [Ac]4 =B2 | [EGc]4 z4 |][M:3/4][K:treble] [FAc]2 z2 [Gc]2 | [FAd]2 z2 [Gc]2 | %69
w: ||||
 [FAc]2 [DGB]2 [CEG]2 | [CFA]2 z2 [CGc]2 | [FAc]2 z2 [Gc]2 | F2 [CEG]4 | [FA]2 F2 [CA]2 | %74
w: |||||
 [DB]2 [_EGA]2 [D^FA]2 | [G=B]2 G2 [DGB]2 | [EGc]2 z2 [DGd]2 | [EGc]2 z2 [DGd]2 | c2 [DG=B]4 | %79
w: |||||
 [EGc]2 z2 z2 | [DG=B]2 z2 z2 | c3 _B Ac | [DG=B]2 [CGc]2 z2 | AG [DF]2 z [DF] | F6 | F6 | %86
w: |||||||
 [G,DF]2 [G,CE]2 z2 | c_B A2 z2 | [DAc]2 z2 z2 | [DAc]2 z2 z2 | [DG=B]2 [CGc]2 [CEA]2 | %91
w: |||||
 [CFA]2 [DFA]2 [=B,DG]2 | [CEG]2 [=B,DG]2 [DG=B]2 |1 [EGc]6 :|2 [EGc]6 |: [EGc]2 z2 [DGd]2 | %96
w: |||||
 [FAc]2 z2 [DGd]2 | [EGc]2 [FAd]2 [DGB]2 | c_B A2 [^CGA]2 | [DFA]2 z2 [A,EA]2 | [DFA]2 z2 [A,EA]2 | %101
w: |||||
 A6 | A4 [A^c]2 | [FAd]2 d2 c2 | [DGB]2 [D^FA]4 | [DGB]2 z [D^FA] [DGB][DFA] | %106
w: |||||
 [DGB]2 z [D^FA][DGB][DFA] | [DGB][_EG] [D^F]4 | [DF]6 | [CG]6 | A2 F2 A2 | %111
w: |||||
 [DFB]2 z [CFA][DFB][CFA] | [DFB]2 z [CFA][DFB][CFA] | [DFB]2 z G GB | [EGc]2 z A A^c | %115
w: ||||
 [FAd]2 z [FB] B>A | [Gc]2 z [CGc] [Gc]2 | [CFA]2 [EGc]4 | [CFA]2 [EGc]4 | c4 z2 | c4 z2 | %121
w: ||||||
 [FAc][DFB] [CEG]4 | [DF]4 z2 | !arpeggio![CEGB]6 | !arpeggio![CEGB]6 | %125
w: ||||
 !arpeggio![CGB]2 z2 [CFA]2 | [CFA]2 [DA]2 z2 | [DFG]2 z4 | [DFG]2 z4 | [CEG]2 [CFc]2 [FA]2 | %130
w: |||||
 dcBA Gc | c4 z2 | c4 z2 | [CFA]2 [CEG]4 |1 AA/B/ c4 :|2 [A,CF]6 |] %136
w: ||||||
V:5
 F,,F,D,B, A,B,CC, | F,D z F, E,C z E, | D,B, z D, C,CA,E, | F,F,,F,G, A,B,CC, | %4
 F,2 z D, G,2 z G,, | C,CA,F, E,CG,,=B, | C,A, z C, =B,,G, z B,, | A,,F, z A,, G,,G,E,=B,, | %8
 C,C,,C,D, E,F,G,G,, | C,2 E,2 F,2 A,,2 | B,,2 z G, F,2 F,,2 | B,,B,G,_E, D,E,F,F,, | %12
 B,,G, z B,, A,,F, z A,, | G,,_E, z G,, F,,F,D,A,, | B,,2 z A,, B,,_E,F,F,, | B,,2 =B,,2 C,2 E,2 | %16
 F,2 A,2 B,2 D,2 | E,2 G,2 A,2 ^C,2 | D,2 D^C DA,D,A, | DD,A,,D, G,D,G,,D, | %20
 G,,G,_E,C, B,,C,D,D,, | G,_E z G, F,D z F, | _E,C z E, D,DB,^F, | G,2 z ^F, G,B,DD, | %24
 G,G,,C,=B,, C,C,F,,C, | F,F,B,,F, B,G,C,G, | CA,D,A, D, z2 z | %27
 z/ A,/A,/A,/ (3F,/G,/A,/ (3^E,/F,/G,/ F,/D/D/D/ (3B,/C/D/ (3G,/A,/B,/ | %28
 C,/C/C/C/ (3A,/B,/C/ (3F,/G,/A,/ B,,/B,/B,/B,/ (3G,/A,/B,/ (3E,/F,/G,/ | A,,D, A,A,, D,,2 D,2 | %30
 E,2 C,D, E,F,G,G,, | C,A, z C, B,,G, z B,, | A,,F, z D, A,B,CC, | F,F,, z B,, E,E,, z A, | %34
 D,D,, z G, C,CA,E, | F,2 z E, F,B,CC, | F,,2 F,E, F,C, F,,C, | F,F, B,,F, B,G, C,G, | %38
 CC,F,,C, F,/C/C/C/ (3A,/B,/C/ (3G,/A,/B,/ | %39
 A,/D/D/D/ (3B,/C/D/ (3A,/B,/C/ B,/G,/G,/G,/ (3E,/F,/G,/ (3D,/E,/F,/ | %40
 E,/C,/C,/C,/ (3D,/E,/F,/ (3E,/F,/G,/ F,/C,/C,/C,/ (3D,/E,/F,/ (3E,/F,/G,/ | F,2 z E, F,B,CC, | %42
 F,4 z4 |][M:4/4] F,A,B,G, CC,CA, | D,DCB, A,G,F,E, | D,C,B,,C, F,,2 z F,- | F,E,F,D, G,G,, z G, | %47
 A,,A,G,F, E,D,C,=B,, | C,E,,F,,G,, C,E,,F,,G,, | C,CA,F, C2 z C, | G,2 z G,, D,2 z G, | %51
 A,D,A,A,, D,B,,G,,A,, | D,F,G,A, D,D,^F,D, | G,G,, z G, C, C2 =B, | CA,B,G, CC, z C | %55
 D,DCB, A,G,F,E, | D,A,,B,,C, F,A,,B,,C, | F,B,CC, F,2 D,B,, | A,,B,,C,C,, F,,G,,A,,F,, | %59
 B,,2 z G,, D,2 z G, | CA,B,G, CC, z C | D,DCB, A,G,F,E, | D,A,,B,,C, F,A,,B,,C, | %63
 F,,B,,C,C,, F,,2 z F, | E,2 | A,,2 D,4 | C,4 z4 |][M:3/4] F,2 z2 E,2 | D,2 z2 E,2 | F,2 B,2 C2 | %70
 F,2 z2 E,2 | F,2 z2 E,2 | F,B, C2 C,2 | F,2 A,2 F,2 | B,2 C2 D2 | G,2 =B,2 G,2 | C2 z2 =B,2 | %77
 C2 z2 =B,2 | CF, G,2 G,,2 | C,2 z2 z2 | G,2 z2 z2 | CB,A,G, F,E,/F,/ | G,F, E,2 z2 | %83
 F,E, D,2 z C, | =B,,F,/E,/ F,D,B,,D, | G,,F,/E,/ F,D,=B,,D, | G,,A,,/=B,,/ C,2 z2 | %87
 C,D,/E,/ F,2 z2 | ^F,2 z2 z2 | ^F,2 z2 z2 | G,F, E,F,/G,/ A,G, | F,E, D,E,/F,/ G,2 | %92
 C,2 G,2 G,,2 |1 C,2 CB,A,G, :|2 C,6 |: C,2 z2 B,,2 | A,,2 z2 B,,2 | C,2 F,2 G,2 | C,2 ^C,2 A,,2 | %99
 D,2 z2 ^C,2 | D,2 z2 ^C,2 | D,2 A,2 A,,2 | D,2 A,2 A,,2 | D,2 D2 D,2 | G,2 D2 D,2 | G,2 z D,G,D, | %106
 G,2 z D,G,D, | G,CDCDD, | G,2 =B,2 G,2 | C,2 E,2 C,2 | F,2 A,2 F,2 | B,,2 z F,B,F, | %112
 B,2 z F, B,F, | B,2 z =B, B,C/D/ | C2 z ^C CD/E/ | D2 z D DE/F/ | E2 z E, E,D,/C,/ | %117
 F,E,/D,/ C,C,C,C, | F,E,/D,/ C,C,C,C, | F,2 E,2 z2 | F,2 E,2 z2 | F,B,CB,CC, | D,2 z D,D,E,/F,/ | %123
 E,B,/A,/ B,G,E,G, | C,B,/A,/ B,G,E,G, | C,D,/E,/ F,2 z2 | F,G,/A,/ B,2 z2 | =B,2 z4 | =B,2 z4 | %129
 CB, A,B,/C/ DC | B,A, G,A,/B,/ CC, | F,2 E,2 z2 | F,2 E,2 z2 | F,2 C,2 C,,2 |1 %134
 F,,F,/G,/ A,F,E,D, :|2 F,,6 |] %136
V:6
 x8 | x4 C2 x2 | x4 [EG]2 FG | x2 F2- F x3 | x8 | x5 C =B,D | x4 D2 x2 | x4 =B,2 CD | x2 EF GAGF | %9
 x8 | x4 [CF]4 | x3 G x GF_E | x4 F2 x2 | x8 | x8 | x2 GF x2 [CG]2 | x2 F_E x2 [B,F]2 | x6 [A,E]2 | %18
 A,2 DE [DF][^CE][DF][CE] | D4 D4 | x2 G2 G2 x2 | D_E x2 D2 x2 | x6 D2 | x8 |[K:treble] x2 ED x4 | %25
 x8 | x8 | x8 | x8 | [^CE]D x2 [DF][FA]/[EG]/ [DFA]B | x2 EF GA x2 | x8 | x4 F2 [EG]2 | x8 | %34
 x4 E2 x2 | x8 | x8 | x8 | [EG][EG][FA][EG] [FA][EG]FE | x2 G^F G4- | GEFG AEF[CG] | x8 | x8 |] %43
[M:4/4][K:treble] A,C D2 x4 | FFED FBAG | FEDE x4 | x8 | E3 F CFED | %48
 [CE][G,C][A,D][=B,D] [CE][G,C][A,D][B,D] | x2 FA x4 | [DG]2 x2 GF x2 | [^CE][DF] [CE]2 x4 | %52
 [A,D]2 [B,D][A,^C] [A,D]F/E/ D^F | x8 | EFDG/F/ x3 E | [DF]FED FBAG | %56
 F[CF][DG][EG] [FA][CF][DG][EG] | [CF]D x6 | x2 C2 A,B,(C[A,C]) | [B,D]2 x2 GF x2 | %60
 [EG]FDG/F/ x3 E | [DF]FED FBAG | F[CF][DG-][EG] [FA][CF][DG][EG] | CD x6 | x2 | E2 F4 | x8 |] %67
[M:3/4][K:treble] x6 | x6 | x6 | x6 | x6 | [FA][DB] x4 | x6 | x6 | D4 x2 | x6 | x6 | [EG][FA] x4 | %79
 x6 | x6 | [EG]2 F2- FG/A/ | x6 | C2 x4 | CD/C/ D=B, G,B,- | B,D/C/ D=B, G,B, | =B,C/D/ x4 | %87
 [C-E-G]2 [CE]2 x2 | x6 | x6 | x6 | x6 | x6 |1 x6 :|2 x6 |: x6 | x6 | x6 | E4 x2 | x6 | x6 | %101
 [DF]2 [^CE]4 | [DF]2 [^CE]2 E2 | x2 [^FA]4 | x6 | x6 | x6 | x6 | B,2 D2 B,2 | E2 C2 E2 | [CF]6 | %111
 x6 | x6 | x3 F F2 | x3 G G2 | x4 FG/A/ | x4 CE | x6 | x6 | [FA]2 [CG]2 x2 | [FA]2 [CG]2 x2 | x6 | %122
 A,2 B,B, B,C/D/ | x6 | x6 | x2 EF/G/ x2 | (FE F2) x2 | x6 | x6 | x6 | F4 E2 | [FA]2 [CG]2 x2 | %132
 [FA]2 [CG]2 x2 | x6 |1 [A,C]F FA GF :|2 x6 |] %136

